brandFactory_export/2.Regular/Gasolina_2Regular.svg

<?xml version="1.0" encoding="UTF-8"?>
<svg width="24px" height="24px" viewBox="0 0 24 24" version="1.1" xmlns="http://www.w3.org/2000/svg" xmlns:xlink="http://www.w3.org/1999/xlink">
    <title>2.Regular/Gasolina_2Regular</title>
    <g id="Symbols" stroke="none" stroke-width="1" fill="none" fill-rule="evenodd">
        <g id="2.Regular/Gasolina_2Regular" fill="#5CB615" fill-rule="nonzero">
            <path d="M14.4605042,1.71092437 L14.4605042,12.3327731 L15.0386555,12.3327731 C16.8571429,12.3327731 18.3327731,13.805042 18.3361345,15.6235294 L18.3394958,20.2689076 C18.3394958,21.9361345 19.4823529,22.2016807 20.1647059,22.2117647 L20.3831933,22.2117647 C21.0655462,22.1983193 22.2117647,21.9327731 22.2117647,20.2857143 L22.205042,10.5714286 C21.7243697,10.8134454 21.1932773,10.9445378 20.6521008,10.9579832 L20.4504202,10.9613445 L20.3663866,10.9613445 C19.7310924,10.9512605 17.3579832,10.7226891 17.3579832,7.80504202 C17.3579832,5.31428571 19.0756303,4.79663866 19.9663866,4.69579832 L16.5747899,1.26722689 C16.292437,0.981512605 16.2957983,0.524369748 16.5815126,0.242016807 C16.8672269,-0.0403361345 17.3243697,-0.0369747899 17.6067227,0.248739496 L22.8067227,5.50252101 C22.8369748,5.53277311 22.8705882,5.56302521 22.9008403,5.59663866 L22.907563,5.60672269 L22.9109244,5.61344538 C23.3411765,6.08067227 23.6537815,6.77647059 23.6537815,7.81848739 C23.6537815,7.86218487 23.6504202,7.89915966 23.6470588,7.94285714 L23.6571429,20.2857143 C23.6571429,22.6505828 22.0170446,23.5705279 20.549476,23.6548363 L20.4033613,23.6605042 L20.4033613,23.6605042 L20.2319328,23.6605042 C18.6386555,23.6403361 16.8840336,22.7394958 16.8840336,20.2722689 L16.8840336,15.6268908 C16.8806723,14.6084034 16.0537815,13.7848739 15.0352941,13.7848739 L14.4571429,13.7848739 L14.4571429,22.010084 C14.4571429,22.8444051 13.7481878,23.5821877 12.9076037,23.6575378 L12.7663866,23.6638655 L12.7663866,23.6638655 L1.7210084,23.6638655 C0.820168068,23.6638655 0.0302521011,22.8907563 0.0302521011,22.010084 L0.0302521011,1.70756303 C0.0336134457,0.843697479 0.840336135,0.0571428571 1.72436975,0.0571428571 L12.7697479,0.0571428571 C13.6537815,0.0571428571 14.4605042,0.847058824 14.4605042,1.71092437 Z M12.7697479,1.50588235 L1.72436975,1.50588235 C1.63361345,1.50588235 1.49243698,1.64033613 1.48571429,1.71428571 L1.48571429,22.0067227 C1.48571429,22.0806723 1.60672269,22.2117647 1.72436975,22.2117647 L12.7697479,22.2117647 C12.887395,22.2117647 13.0084034,22.0773109 13.0084034,22.0033613 L13.0084034,1.71092437 C13.0016807,1.64033613 12.8605042,1.50588235 12.7697479,1.50588235 Z M10.3260504,3.09243697 C10.9915966,3.09243697 11.5731092,3.74117647 11.5731092,4.48403361 L11.5731092,8.19159664 C11.5731092,8.89747899 11.0708771,9.50291492 10.4513959,9.57583705 L10.3260504,9.58319328 L10.3260504,9.58319328 L4.32605042,9.58319328 C3.65042017,9.58319328 3.07563025,8.94453782 3.07563025,8.19159664 L3.07563025,4.48403361 C3.07563025,3.74117647 3.6605042,3.09243697 4.32605042,3.09243697 L10.3260504,3.09243697 Z M20.4033613,6.11092437 L20.3495798,6.11092437 C18.8619832,6.12383193 18.8024793,7.24575731 18.8000992,7.73994143 L18.8,7.79831933 C18.8,8.25882353 18.8,9.48571429 20.3764706,9.50588235 L20.4403361,9.50588235 L20.6252101,9.5092437 C21.9764706,9.48571429 22.1680672,8.60168067 22.1983193,8.0605042 L22.1983193,7.88907563 L22.205042,7.85882353 L22.205042,7.85882353 L22.205042,7.81848739 C22.205042,7.54285714 22.2016807,6.98487395 21.8386555,6.58487395 L21.7781513,6.52436975 C21.5428571,6.29579832 21.1764706,6.12773109 20.6016807,6.11428571 L20.4033613,6.11092437 Z M10.1210084,4.53781513 L4.53445378,4.53781513 L4.52436975,8.13445378 L10.1142857,8.13781513 L10.1210084,4.53781513 Z" id="Gasolina_2Regular"></path>
        </g>
    </g>
</svg>

<svg width="24" height="24" viewBox="0 0 24 24" xmlns="http://www.w3.org/2000/svg"><path d="M14.46 1.71v10.623h.579a3.297 3.297 0 013.297 3.29l.003 4.646c0 1.667 1.143 1.933 1.826 1.943h.218c.683-.014 1.829-.28 1.829-1.926l-.007-9.715a3.655 3.655 0 01-1.553.387l-.202.003h-.084c-.635-.01-3.008-.238-3.008-3.156 0-2.49 1.718-3.008 2.608-3.11l-3.391-3.428a.723.723 0 01.007-1.025.723.723 0 011.025.007l5.2 5.254c.03.03.064.06.094.094l.007.01.003.006c.43.468.743 1.163.743 2.205 0 .044-.004.081-.007.125l.01 12.343c0 2.365-1.64 3.285-3.108 3.369l-.146.006h-.171c-1.593-.02-3.348-.922-3.348-3.389v-4.645a1.848 1.848 0 00-1.849-1.842h-.578v8.225c0 .834-.709 1.572-1.55 1.648l-.14.006H1.72c-.9 0-1.69-.773-1.69-1.654V1.708C.033.844.84.058 1.723.058H12.77c.884 0 1.69.79 1.69 1.653zm-1.69-.204H1.724c-.09 0-.232.134-.238.208v20.293c0 .074.12.205.238.205H12.77c.117 0 .238-.135.238-.209V1.711c-.006-.07-.147-.205-.238-.205zm-2.444 1.586c.666 0 1.247.65 1.247 1.392v3.708c0 .705-.502 1.31-1.122 1.384l-.125.007h-6c-.676 0-1.25-.638-1.25-1.391V4.484c0-.743.585-1.392 1.25-1.392h6zm10.077 3.019h-.053c-1.488.013-1.548 1.135-1.55 1.629v.058c0 .46 0 1.688 1.576 1.708h.064l.185.003c1.351-.023 1.543-.907 1.573-1.448v-.172l.007-.03v-.04c0-.276-.003-.834-.366-1.234l-.06-.06c-.236-.23-.603-.397-1.177-.41l-.199-.004zM10.121 4.538H4.534l-.01 3.596 5.59.004.007-3.6z" fill="#5CB615" fill-rule="nonzero"/></svg>
